style-guide/assets/xd-icons-video-tiny.svg

<svg viewBox="0 0 12 12" xmlns="http://www.w3.org/2000/svg">
  <path d="M10 7.481l-1.604-.689A.999.999 0 0 0 7 7.71V9H2V3h5v1.29a1 1 0 0 0 1.396.918L10 4.518v2.963zm1.55-5.316a.999.999 0 0 0-.946-.084L9 2.771V2a1 1 0 0 0-1-1H1a1 1 0 0 0-1 1v8a1 1 0 0 0 1 1h7a1 1 0 0 0 1-1v-.772l1.604.691A1 1 0 0 0 12 9V3a.997.997 0 0 0-.45-.835z"/>
</svg>

<?xml version="1.0" encoding="UTF-8"?>
<svg width="12px" height="12px" viewBox="0 0 12 12" version="1.1" xmlns="http://www.w3.org/2000/svg" xmlns:xlink="http://www.w3.org/1999/xlink">
    <!-- Generator: Sketch 51.3 (57544) - http://www.bohemiancoding.com/sketch -->
    <title>video</title>
    <desc>Created with Sketch.</desc>
    <defs></defs>
    <g id="video" stroke="none" stroke-width="1" fill="none" fill-rule="evenodd">
        <path d="M10,7.481 L8.396,6.792 C8.086,6.657 7.731,6.689 7.45,6.875 C7.169,7.059 7,7.374 7,7.71 L7,9 L2,9 L2,3 L7,3 L7,4.29 C7,4.626 7.169,4.94 7.45,5.125 C7.732,5.311 8.087,5.342 8.396,5.208 L10,4.518 L10,7.481 Z M11.55,2.165 C11.269,1.979 10.914,1.948 10.604,2.081 L9,2.771 L9,2 C9,1.448 8.553,1 8,1 L1,1 C0.447,1 0,1.448 0,2 L0,10 C0,10.551 0.447,11 1,11 L8,11 C8.553,11 9,10.551 9,10 L9,9.228 L10.604,9.919 C10.913,10.051 11.268,10.02 11.55,9.835 C11.831,9.65 12,9.336 12,9 L12,3 C12,2.663 11.831,2.349 11.55,2.165 Z" id="Fill-1" fill="#000000"></path>
    </g>
</svg>
